packages/icons/src/components/Icon/assets/small-outline/doc-paper.svg

<svg width="16" height="16" viewBox="0 0 16 16" fill="none" xmlns="http://www.w3.org/2000/svg">
<path d="M10.2505 10C10.6645 10.0003 11.0005 10.3359 11.0005 10.75C11.0005 11.1641 10.6645 11.4997 10.2505 11.5H5.75049C5.33627 11.5 5.00049 11.1642 5.00049 10.75C5.00049 10.3358 5.33627 10 5.75049 10H10.2505Z" fill="#727683"/>
<path d="M10.2505 7C10.6645 7.00026 11.0005 7.33595 11.0005 7.75C11.0005 8.16405 10.6645 8.49974 10.2505 8.5H5.75049C5.33627 8.5 5.00049 8.16421 5.00049 7.75C5.00049 7.33579 5.33627 7 5.75049 7H10.2505Z" fill="#727683"/>
<path fill-rule="evenodd" clip-rule="evenodd" d="M8.87939 1.25C9.47587 1.25019 10.0484 1.48739 10.4702 1.90918L13.5913 5.03027C14.0131 5.45215 14.2504 6.02455 14.2505 6.62109V12.5C14.2505 13.7425 13.2429 14.7497 12.0005 14.75H4.00049C2.75785 14.75 1.74951 13.7426 1.74951 12.5V3.5C1.74951 2.25736 2.75785 1.25 4.00049 1.25H8.87939ZM4.00049 2.75C3.58627 2.75 3.25049 3.08579 3.25049 3.5V12.5C3.25049 12.9142 3.58627 13.25 4.00049 13.25H12.0005C12.4145 13.2497 12.7505 12.9141 12.7505 12.5V6.62109C12.7504 6.42238 12.6712 6.2314 12.5308 6.09082L9.40967 2.96973C9.26918 2.82924 9.07805 2.75019 8.87939 2.75H4.00049Z" fill="#727683"/>
</svg>

<svg xmlns="http://www.w3.org/2000/svg" width="16" height="16" fill="none" viewBox="0 0 16 16">
    <path fill="#727683" d="M10.25 10a.75.75 0 0 1 0 1.5h-4.5a.75.75 0 0 1 0-1.5zm0-3a.75.75 0 0 1 0 1.5h-4.5a.75.75 0 1 1 0-1.5z"/>
    <path fill="#727683" fill-rule="evenodd" d="M8.88 1.25c.596 0 1.168.237 1.59.66l3.121 3.12c.422.422.66.995.66 1.591V12.5A2.25 2.25 0 0 1 12 14.75H4a2.25 2.25 0 0 1-2.25-2.25v-9A2.25 2.25 0 0 1 4 1.25zM4 2.75a.75.75 0 0 0-.75.75v9c0 .414.336.75.75.75h8a.75.75 0 0 0 .75-.75V6.621a.75.75 0 0 0-.22-.53L9.41 2.97a.75.75 0 0 0-.53-.22z" clip-rule="evenodd"/>
</svg>
